images/hot3.svg

<svg width="50" height="52" viewBox="0 0 50 52" fill="none" xmlns="http://www.w3.org/2000/svg">
<path d="M0 4.73687V35.2024C0 36.9079 0.923638 38.4849 2.42381 39.326L22.6556 50.6688C24.1087 51.4865 25.8913 51.4865 27.3444 50.6688L47.5762 39.326C49.0764 38.4849 50 36.9079 50 35.2024V4.73687C50 2.1202 47.8645 0 45.2288 0H4.77115C2.13555 0 0 2.1202 0 4.73687Z" fill="url(#paint0_linear_837_33204)"/>
<g filter="url(#filter0_d_837_33204)">
<path d="M18.9448 8.0618H20.5803V15.1289H18.9448V12.2314H15.7343V15.1289H14.0988V8.0618H15.7343V10.8483H18.9448V8.0618ZM25.6749 15.2501C23.4437 15.2501 21.8082 13.6953 21.8082 11.5954C21.8082 9.49541 23.4437 7.94065 25.6749 7.94065C27.896 7.94065 29.5416 9.48532 29.5416 11.5954C29.5416 13.7054 27.896 15.2501 25.6749 15.2501ZM25.6749 13.8568C26.9369 13.8568 27.8859 12.9381 27.8859 11.5954C27.8859 10.2526 26.9369 9.33388 25.6749 9.33388C24.4129 9.33388 23.4639 10.2526 23.4639 11.5954C23.4639 12.9381 24.4129 13.8568 25.6749 13.8568ZM32.1361 15.1289V9.39446H29.8746V8.0618H36.0331V9.39446H33.7716V15.1289H32.1361Z" fill="#BA5C23"/>
</g>
<g filter="url(#filter1_d_837_33204)">
<path d="M19.386 34.7445C18.0533 34.7445 16.8688 34.4262 15.8322 33.7895C14.8105 33.1528 14.0035 32.2347 13.4113 31.0353C12.819 29.8359 12.5228 28.3774 12.5228 26.6598C12.5228 24.9421 12.819 23.4836 13.4113 22.2842C14.0035 21.0848 14.8105 20.1668 15.8322 19.5301C16.8688 18.8934 18.0533 18.575 19.386 18.575C20.7038 18.575 21.8736 18.8934 22.8953 19.5301C23.9318 20.1668 24.7462 21.0848 25.3385 22.2842C25.9308 23.4836 26.2269 24.9421 26.2269 26.6598C26.2269 28.3774 25.9308 29.8359 25.3385 31.0353C24.7462 32.2347 23.9318 33.1528 22.8953 33.7895C21.8736 34.4262 20.7038 34.7445 19.386 34.7445ZM19.386 31.1464C19.8598 31.1464 20.2744 30.9983 20.6298 30.7022C21 30.406 21.2887 29.9322 21.496 29.2807C21.7033 28.6143 21.807 27.7407 21.807 26.6598C21.807 25.564 21.7033 24.6904 21.496 24.0389C21.2887 23.3874 21 22.9135 20.6298 22.6174C20.2744 22.3213 19.8598 22.1732 19.386 22.1732C18.9122 22.1732 18.4901 22.3213 18.12 22.6174C17.7646 22.9135 17.4758 23.3874 17.2537 24.0389C17.0464 24.6904 16.9428 25.564 16.9428 26.6598C16.9428 27.7407 17.0464 28.6143 17.2537 29.2807C17.4758 29.9322 17.7646 30.406 18.12 30.7022C18.4901 30.9983 18.9122 31.1464 19.386 31.1464ZM32.7082 34.7445C31.6273 34.7445 30.5463 34.6113 29.4654 34.3448C28.3993 34.0782 27.4664 33.7006 26.6668 33.212L28.266 29.9026C28.8879 30.3172 29.5765 30.6355 30.3316 30.8576C31.1016 31.0797 31.8494 31.1908 32.5749 31.1908C33.3301 31.1908 33.9298 31.0501 34.374 30.7688C34.8182 30.4875 35.0403 30.0877 35.0403 29.5694C35.0403 29.1104 34.8552 28.7476 34.4851 28.4811C34.1149 28.1997 33.5078 28.0591 32.6638 28.0591H30.8203V25.2827L34.9959 20.7739L35.4179 22.2842H27.4664V18.886H38.7051V21.6401L34.5295 26.1489L32.375 24.9273H33.5744C35.5142 24.9273 36.9801 25.3641 37.9722 26.2378C38.9791 27.0966 39.4825 28.2071 39.4825 29.5694C39.4825 30.4578 39.2382 31.2945 38.7496 32.0792C38.2757 32.864 37.5428 33.5081 36.5507 34.0116C35.5586 34.5002 34.2778 34.7445 32.7082 34.7445Z" fill="url(#paint1_linear_837_33204)"/>
</g>
<defs>
<filter id="filter0_d_837_33204" x="14.0977" y="7.94141" width="22.5177" height="7.89267" filterUnits="userSpaceOnUse" color-interpolation-filters="sRGB">
<feFlood flood-opacity="0" result="BackgroundImageFix"/>
<feColorMatrix in="SourceAlpha" type="matrix" values="0 0 0 0 0 0 0 0 0 0 0 0 0 0 0 0 0 0 127 0" result="hardAlpha"/>
<feOffset dx="0.584078" dy="0.584078"/>
<feComposite in2="hardAlpha" operator="out"/>
<feColorMatrix type="matrix" values="0 0 0 0 1 0 0 0 0 1 0 0 0 0 1 0 0 0 1 0"/>
<feBlend mode="normal" in2="BackgroundImageFix" result="effect1_dropShadow_837_33204"/>
<feBlend mode="normal" in="SourceGraphic" in2="effect1_dropShadow_837_33204" result="shape"/>
</filter>
<filter id="filter1_d_837_33204" x="12.5234" y="18.5742" width="27.9101" height="17.121" filterUnits="userSpaceOnUse" color-interpolation-filters="sRGB">
<feFlood flood-opacity="0" result="BackgroundImageFix"/>
<feColorMatrix in="SourceAlpha" type="matrix" values="0 0 0 0 0 0 0 0 0 0 0 0 0 0 0 0 0 0 127 0" result="hardAlpha"/>
<feOffset dx="0.949127" dy="0.949127"/>
<feComposite in2="hardAlpha" operator="out"/>
<feColorMatrix type="matrix" values="0 0 0 0 1 0 0 0 0 1 0 0 0 0 1 0 0 0 1 0"/>
<feBlend mode="normal" in2="BackgroundImageFix" result="effect1_dropShadow_837_33204"/>
<feBlend mode="normal" in="SourceGraphic" in2="effect1_dropShadow_837_33204" result="shape"/>
</filter>
<linearGradient id="paint0_linear_837_33204" x1="0.146283" y1="0.0651041" x2="49.4904" y2="51.7027" gradientUnits="userSpaceOnUse">
<stop stop-color="#FDCDA4"/>
<stop offset="0.35" stop-color="#FFE9D7"/>
<stop offset="0.75" stop-color="#FFCB9D"/>
<stop offset="1" stop-color="#EBA05E"/>
</linearGradient>
<linearGradient id="paint1_linear_837_33204" x1="25.9531" y1="13.4336" x2="25.9531" y2="40.4336" gradientUnits="userSpaceOnUse">
<stop stop-color="#BA5C23"/>
<stop offset="1" stop-color="#7F3000"/>
</linearGradient>
</defs>
</svg>

<?xml version="1.0" encoding="UTF-8"?>
<svg id="_圖層_1" data-name="圖層_1" xmlns="http://www.w3.org/2000/svg" xmlns:xlink="http://www.w3.org/1999/xlink" version="1.1" viewBox="0 0 50 51.28">
  <!-- Generator: Adobe Illustrator 30.6.0, SVG Export Plug-In . SVG Version: 2.1.4 Build 109)  -->
  <defs>
    <style>
      .st0 {
        fill: url(#_未命名漸層);
      }

      .st1 {
        fill: #ba5c23;
      }

      .st2 {
        fill: url(#_未命名漸層_2);
      }
    </style>
    <linearGradient id="_未命名漸層" data-name="未命名漸層" x1="3.2" y1="56.85" x2="52.54" y2="5.21" gradientTransform="translate(0 54) scale(1 -1)" gradientUnits="userSpaceOnUse">
      <stop offset="0" stop-color="#fdcda4"/>
      <stop offset=".35" stop-color="#ffe9d7"/>
      <stop offset=".75" stop-color="#ffcb9d"/>
      <stop offset="1" stop-color="#eba05e"/>
    </linearGradient>
    <linearGradient id="_未命名漸層_2" data-name="未命名漸層 2" x1="26" y1="40.57" x2="26" y2="13.57" gradientTransform="translate(0 54) scale(1 -1)" gradientUnits="userSpaceOnUse">
      <stop offset="0" stop-color="#ba5c23"/>
      <stop offset="1" stop-color="#7f3000"/>
    </linearGradient>
  </defs>
  <path class="st0" d="M0,4.74v30.47c0,1.71.92,3.28,2.42,4.12l20.23,11.34c1.45.82,3.24.82,4.69,0l20.23-11.34c1.5-.84,2.42-2.42,2.42-4.12V4.74c0-2.62-2.14-4.74-4.77-4.74H4.77C2.14,0,0,2.12,0,4.74Z"/>
  <path class="st1" d="M18.94,8.06h1.64v7.07h-1.64v-2.9h-3.21v2.9h-1.64v-7.07h1.64v2.79h3.21v-2.79ZM25.67,15.25c-2.23,0-3.87-1.55-3.87-3.65s1.64-3.65,3.87-3.65,3.87,1.54,3.87,3.65-1.65,3.65-3.87,3.65ZM25.67,13.86c1.26,0,2.21-.92,2.21-2.26s-.95-2.26-2.21-2.26-2.21.92-2.21,2.26.95,2.26,2.21,2.26ZM32.14,15.13v-5.73h-2.26v-1.33h6.16v1.33h-2.26v5.73h-1.64Z"/>
  <path class="st2" d="M19.39,34.74c-1.33,0-2.52-.32-3.55-.95-1.02-.64-1.83-1.55-2.42-2.75-.59-1.2-.89-2.66-.89-4.38s.3-3.18.89-4.38c.59-1.2,1.4-2.12,2.42-2.75,1.04-.64,2.22-.96,3.55-.96s2.49.32,3.51.96c1.04.64,1.85,1.55,2.44,2.75.59,1.2.89,2.66.89,4.38s-.3,3.18-.89,4.38c-.59,1.2-1.41,2.12-2.44,2.75-1.02.64-2.19.95-3.51.95ZM19.39,31.15c.47,0,.89-.15,1.24-.44.37-.3.66-.77.87-1.42.21-.67.31-1.54.31-2.62s-.1-1.97-.31-2.62c-.21-.65-.5-1.13-.87-1.42-.36-.3-.77-.44-1.24-.44s-.9.15-1.27.44c-.36.3-.64.77-.87,1.42-.21.65-.31,1.53-.31,2.62s.1,1.95.31,2.62c.22.65.51,1.13.87,1.42.37.3.79.44,1.27.44ZM32.71,34.74c-1.08,0-2.16-.13-3.24-.4-1.07-.27-2-.64-2.8-1.13l1.6-3.31c.62.41,1.31.73,2.07.95.77.22,1.52.33,2.24.33s1.35-.14,1.8-.42c.44-.28.67-.68.67-1.2,0-.46-.19-.82-.56-1.09-.37-.28-.98-.42-1.82-.42h-1.84v-2.78l4.18-4.51.42,1.51h-7.95v-3.4h11.24v2.75l-4.18,4.51-2.15-1.22h1.2c1.94,0,3.41.44,4.4,1.31,1.01.86,1.51,1.97,1.51,3.33,0,.89-.24,1.73-.73,2.51-.47.78-1.21,1.43-2.2,1.93-.99.49-2.27.73-3.84.73Z"/>
</svg>
